X: 1
T: Lad O'Beirne's
M: 4/4
L: 1/8
R: reel
K: Gmaj
|: DGGG DGBG | AB{c}BG AGEG | DGGF G2Bd | egdg edge |
dBBB dBGB | cEEE GEDE | DEGA BABc | dBAc BGG2 :|
|: d2Be d2Bd | ef{g}dg edge | dBBB dBGB | cEEE GFED2 |
Bdd^c d2ef | g2fa gedB | DEGA BABc | dBAc BGG2 :|
